!!! OTL: Literature2
!!! Chapter: 5
!!! Section: I
!!! Page: 345
!!! Mode: 
!!! Encoder: DJB
**kern
*staff1
*I"Piano
=1-
*clefF4
*k[f#]
*G:
*M4/4
4G\
4A\
4B\
4A\
=2
4G\
4F#\
4E\
4D\
=3
4G\
4A\
4B\
4c\
=4
4B\
4A\
2G\
=5
4B\
4c\
4d\
4d\
=6
4c\
4B\
2A\
=7
4B\
4d\
4c\
8B\L
8A\J
=8
4G\
4A\
2B\
=9
4d\
4d\
4c\
8B\L
8A\J
=10
!!linebreak:original
4B\
4A\
2G\
==
*-
